packages/katcn/src/icons/svg/ruler-solid.svg

<svg width="24" height="25" viewBox="0 0 24 25" fill="none" xmlns="http://www.w3.org/2000/svg">
<path d="M22.2831 5.14905L19.0931 1.95631C18.0963 0.958575 16.5013 0.958575 15.6041 1.95631L1.74765 15.8248C0.750783 16.8225 0.750783 18.4189 1.74765 19.3169L4.93762 22.5096C5.43605 23.0085 6.03417 23.208 6.73198 23.208C7.42979 23.208 8.02791 22.9087 8.52634 22.5096L22.2831 8.74089C22.7815 8.24202 22.9809 7.64338 22.9809 6.94497C23.0806 6.24656 22.7815 5.64792 22.2831 5.14905Z" fill="black"/>
<path d="M7.5 17.808C7.2 17.808 7 17.708 6.8 17.508L5.4 16.108C5 15.708 5 15.108 5.4 14.708C5.8 14.308 6.4 14.308 6.8 14.708L8.2 16.108C8.6 16.508 8.6 17.108 8.2 17.508C8 17.708 7.8 17.808 7.5 17.808Z" fill="white"/>
<path d="M12 13.208C11.7 13.208 11.5 13.108 11.3 12.908L9.9 11.508C9.5 11.108 9.5 10.508 9.9 10.108C10.3 9.70801 10.9 9.70801 11.3 10.108L12.7 11.508C13.1 11.908 13.1 12.508 12.7 12.908C12.6 13.108 12.3 13.208 12 13.208Z" fill="white"/>
<path d="M16.6 8.70801C16.3 8.70801 16.1 8.60801 15.9 8.40801L14.5 7.00801C14.1 6.60801 14.1 6.00801 14.5 5.60801C14.9 5.20801 15.5 5.20801 15.9 5.60801L17.3 7.00801C17.7 7.40801 17.7 8.00801 17.3 8.40801C17.1 8.60801 16.8 8.70801 16.6 8.70801Z" fill="white"/>
</svg>

<svg xmlns="http://www.w3.org/2000/svg" fill="none" viewBox="0 0 24 25"><path fill="#000" d="m22.283 5.149-3.19-3.193c-.997-.997-2.592-.997-3.489 0L1.748 15.825c-.997.998-.997 2.594 0 3.492l3.19 3.193c.498.498 1.096.698 1.794.698s1.296-.3 1.794-.698L22.283 8.74c.498-.498.698-1.097.698-1.795.1-.698-.2-1.297-.698-1.796"/><path fill="#fff" d="M7.5 17.808c-.3 0-.5-.1-.7-.3l-1.4-1.4c-.4-.4-.4-1 0-1.4s1-.4 1.4 0l1.4 1.4c.4.4.4 1 0 1.4-.2.2-.4.3-.7.3m4.5-4.6c-.3 0-.5-.1-.7-.3l-1.4-1.4c-.4-.4-.4-1 0-1.4s1-.4 1.4 0l1.4 1.4c.4.4.4 1 0 1.4-.1.2-.4.3-.7.3m4.6-4.5c-.3 0-.5-.1-.7-.3l-1.4-1.4c-.4-.4-.4-1 0-1.4s1-.4 1.4 0l1.4 1.4c.4.4.4 1 0 1.4-.2.2-.5.3-.7.3"/></svg>
